X:1
T:Canzonetta
T:Canzonetta
T:Op. 19
T:Gabriel Pierné
T:Transcribed by Rachel Knight
T:Transcribed by Rachel Knight
T:Transcribed by Rachel Knight
T:Transcribed by Rachel Knight
T:Transcribed by Rachel Knight
T:Transcribed by Rachel Knight
T:Transcribed by Rachel Knight
T:Transcribed by Rachel Knight
C:Gabriel Pierné
Z:Transcribed by Rachel Knight
%%score 1 { ( 2 4 ) | ( 3 5 ) }
L:1/8
Q:3/8=60
M:6/8
K:Eb
V:1 treble transpose=-2 nm="Clarinette\nen Si ♭"
V:2 treble nm="Piano"
V:4 treble 
V:3 bass 
V:5 bass 
V:1
[K:F]"^Andantino moderato"!p!"^Avec élégance" (C3/2F/8A/8c/8e/8.g) !>!f>(ed) | !>!c>(dB) A>(cG) | %2
 F>(GA) e>(=Bd) |!<(! (c>de!<)!!>(! a2 g)!>)! | (C3/2F/8A/8c/8e/8.g) !>!f>(ed) | !>!c>(dB) A>(cG) | %6
 F>(GA) e>(=Bd) |!<(! (c>de!<)!!>(! c'2 c)!>)! |!p!"^Un poco rubato"!<(! (c/d/c!<)!b-) b(.a.b) | %9
!>(! (.a.g.f) (.e.d!>)!.c) | (c f2) (.d.d.f) |!<(! c>AF/D/!<)!!>(! (8:6:8(C/D/E/F/G/A/B/c/)!>)! | %12
!<(! (d/_e/d!>!c'-) c'!<)!(.b.c') |!>(! (.b.a.g) (.^f._e!>)!.d) | (d g2)!<(! (.c.d._e)!<)! | %15
 (!>!_e>!>(!dG/A/ B/c/d/=e/f/g/)!>)! | (a>!<(!ge/^c/ d/c/d/e/f/g/)!<)! | %17
 (a>ge/^c/({de)} d/)!>(!.c/.d/.e/.f/.=B/ | (d/c/d'/c'/a/.f/)!>)! .d/.c/.A/.F/.D/.C/ | %19
 (^C/D/ A2-)"^Poco rit." AGC |!p![Q:1/4=90]"^A tempo" (C3/2F/8A/8c/8e/8.g) f>(ed) | c>(dB) A>(cG) | %22
 F>(GA) e>(=Bd) |!<(! (c>de!<)!!>(! a2 g)!>)! | %24
 (F,-!<(!F,/4A,/8C/8F/8A/8c/8e/8.g)!<)!!>(! f>ed!>)! | %25
 (A,-!<(!A,/4^C/8E/8A/8^c/8e/8g/8.b)!<)!!>(! a>(gf)!>)! | e>(dc) B>A(G | d) z .E .F z z | z6 | %29
 z2 z z z/4 (A,/4!<(!D/4F/4A/4d/4f/4a/4!<)! | d') z z z2 z | %31
 z2 z z z/4 (A,/4!<(!D/4F/4A/4d/4f/4a/4!<)! | d') z z z2!<(! (G/4B/4d/4g/4!<)! | %33
 b) z z z2!<(! (D/4G/4B/4d/4!<)! | g) z z z2!<(! (B,/4D/4G/4B/4!<)! | e) z z z2 z | z6 | %37
 z2 z z z/4!<(! (A,/4D/4F/4A/4d/4f/4a/4)!<)! |!>(! (c'2- c'/c/!>)! c2) z | %39
 z2 z z z/4 F,/4!<(!A,/4C/4F/4A/4c/4f/4!<)! |!mf!"^Expressivo." !>!f>(gf) !>!e>(fe) | %41
 !>!_e!>(!dc- cA!>)!F |!<(! f3 ^f3 | g3 a3!<)! |!>(! (.b.a._a({g=a)} .g.f._e) | %45
 (.d.^c.=c!>)!{/d} cBA) | (A G2- G _G2 |!p! F6-) | F z z z2 z | %49
!p![Q:1/4=75]"^Più lento."!<(! (F/G/F!>!g-) g!<)!!tenuto!f!tenuto!g | %50
!>(! !tenuto!f!tenuto!_e!tenuto!d- d!tenuto!c!tenuto!A!>)! | !tenuto!B!tenuto!c!tenuto!d F3- | %52
!<(! F3- F^FG!<)! | (G/A/G!>!a-) a!tenuto!g!tenuto!a | %54
 !tenuto!g!>(!!tenuto!f!tenuto!_e !tenuto!d!tenuto!e!tenuto!f!>)! | %55
 !tenuto!_e!tenuto!d!tenuto!c G3- | %56
"^Un poco ritenuto." G2!>(! !tenuto!G !tenuto!A!tenuto!B!tenuto!=B!>)! | %57
!pp![Q:1/4=90]"^1° tempo." c3- ceA | Bcd{/_e} dcB | f!<(! _e2- edc!<)! | %60
 dBF-!>(! (F/G/A/B/c/d/!>)! |!<(! =e3-) ef^c!<)! | def{/g} fed | g3- g(fe | %64
"^Animez un peu." f)!<(!(!tenuto!.^c!tenuto!.d !tenuto!.e!tenuto!.f!tenuto!.g | %65
 a)gf!<)!{/g} f.e.d |"^Cèdez un peu."!>(! .f.e.d .c.A.F | (A !trill(!TG2-)!>)! !trill)!G3 | %68
({FG)} F z z!pp! (f3- | f3 c3 | A3 =B3 | c3-) c2- c/ z/ | %72
!<(! (C3/2F/8A/8c/8e/8.g)!<)!!>(! f>(ed)!>)! | c>(dB) A>(BG) | F>(GA) e>(=Bd) | %75
!<(! c>(de!<)!!>(! c'2) c!>)! |!<(! (c/d/c!>!b-) b!<)!(.a.b) | (.a.g.f) (.e.d.c) | (c f2) ddf | %79
!<(! c>AF/D/!<)!!>(! (8:6:8(C/D/E/F/G/A/B/c/)!>)! |!<(! (d/_e/d!>!c'-) c'(.b.c')!<)! | %81
!>(! (.b.a.g) (.^f._e.d)!>)! | (d g2)!<(! (.c.d._e)!<)! | (!>!_e>d!>(!G/A/ B/c/d/=e/f/g/)!>)! | %84
 (a>fe/^c/ d/c/d/=e/f/g/) | (a>ge/^c/({de)} d/)!>(!.c/.d/.e/.f/.=B/ | %86
 (d/c/d'/c'/a/.f/) .d/!>)!.c/.A/.F/.D/.C/ | (^C/D/"^Poco rit." A2-) A(.G.C | %88
!pp![Q:1/4=90]"^A tempo." F6) | (c6 | F3-) F2- F/ z/ | c6- | c/(A/F/C/A,/B,/ =B,/C/D/E/F/G/ | %93
!>(! A/B/=B/c/d/e/ f/g/^g/a/_b/=b/) | c'3-!>)! c' z z |!ppp! F3- F2 f | !fermata!f'3- f' z z |] %97
V:2
!p! z3/2 ([B,G]/.E) z3/2 ([B,B]/.E) | z3/2 ([A,A]/.E) z3/2 ([A,A]/.D) | %2
 z3/2 ([G,G]/.[CE]) z3/2 ([=A,F]/.E) | z3/2 ([_A,F]/.D) .B z z | z3/2 ([B,G]/.E) z3/2 ([B,B]/.E) | %5
 z3/2 ([A,A]/.E) z3/2 ([A,A]/.D) | z3/2 ([G,G]/.[CE]) z3/2 ([=A,F]/.E) | z3/2 ([B,F]/.D) .B z z | %8
!p! [Bc]2 [Bc] [B^c]2 [Bc] | [Bd]2 [Be] [Bd=e]2 [Bdf] | [^Fe^f]2 [Geg] [Aea]2 [=Ae=a] | %11
 ([cec']2 [Beb]) z2 z | [Bc]2 [Bc] [B_d]2 [Bde] | [G_B=c]2 [Bdf] [Bd^f]2 [Gcg] | %14
 [Gcg]2 [Aca] [Bfb]2 [=Bf=b] | (([=Ba=b]2 [cac'])) z2 z | [FG]2 [FG]!<(! [^F_A]2 [FA]!<)! | %17
 [=FG]2 [FG]!>(! [^F=A]2 [EA]!>)! | !arpeggio![B,EB] z z z2 z | (=A,3 _A,3) | %20
!p! z3/2 ([B,G]/.E) z3/2 ([B,B]/.E) | z3/2 ([A,A]/.E) z3/2 ([A,A]/.D) | %22
 z3/2 ([G,G]/.[CE]) z3/2 ([=A,F]/.E) | z3/2 ([_A,F]/.D) .B z2 | z3/2 ([B,G]/.E) z3/2 ([CG]/.E) | %25
 z3/2 ([DG]/.F) z3/2 ([=A,G]/.E) | E2 .[_DG] [CA]2 .[CF] | z2 .[A,D] .[G,E] z z | %28
!p! [eg]>([e-a][eg]) [e^f][eg][eb]- | [eb][e=a][e_a] [eg]2 z | [eg]>([e-a][eg]) [e^f][eg][eb]- | %31
 [eb][e=a][e_a] ([ea]2 [eg]) |!mf!!>(! [Acg]>(^f=f) [Ace]dc!>)! |!mf!!>(! [FAe]>d_d [FAc]BA!>)! | %34
!mf!!>(! [=DFc]>=B_B AGF!>)! | [=B,DA]!>(!G^F!>)! [B,DG] z z | %36
!mf! [eg]>([e-a][eg]) [e^f][eg][eb]- | [eb][e=a][e_a] [eg]2 z | %38
 [gb]>([g-c'][gb]) [g=a][gb][g_d']- |!>(! [g_d'][gc'][g_c'] [gb]ge!>)! | %40
!p! [Ae]2!<(! [Ae] [A=e]2 [Ae] | [Af]2 [Af]!<)! [Gg](E/G/B/e/) |!>(! e>(fe) d>(_ed)!>)! | %43
!>(! _d>(ed-) dcB!>)! | [_Dc]6 | [B,=EB]6 | [=B,=B]6 |!p! [CAc]3- [CAc] z z | z3/2 x/ x .F.^F.G | %49
!p!!<(! [CA]2 [CE] [CEF]2 [CEF]!<)! |!>(! [_DE^F]2 [DEF] [DEG]2 [DEG]!>)! | %51
 [CEA]2 [CEA] [CEG]2 [CEG] | [CE_G]2 [CEG] [CEF]2 [CEF] |!<(! [_DF]2 [DF] [DFG]2 [DFG]!<)! | %54
!>(! [_DFA]2 [DFA] [DF=A]2 [DFA]!>)! | [_DFB]2 [DFB] [DF=A]2 [DFA] | %56
!>(! [_DF_A]2 [DFA] [DFG]2 [DF]!>)! |!pp! (F3 E3) | F2 (F E2) (E | (F3) E3) | F2 (F E2) (E | %61
 (A3) G3) | A2 (A G2) (G | (A3) G3) | A2 (A G2) G- | [=A,EG]6 | [B,EG]6 |!p!!>(! (F6!>)! | %68
!p! (E3/2-)E/8G/8B/8d/8.f) e>(d[Ec]) | B>(c[EA]) G>(B[DF]) | E>(F[EG]) d>([E=A]c) | %71
 [DA_B]>(cd) !>![Adg]2 f | z3/2 ([B,G]/.E) z3/2 ([B,B]/.E) | z3/2 ([A,A]/.E) z3/2 ([A,A]/.D) | %74
 z3/2 ([G,G]/.[CE]) z3/2 ([=A,F]/.E) | z3/2 ([B,F]/.D) .B z z | [Bc]2 [Bc] [B^c]2 [Bc] | %77
 [Bd]2 [Be] [Bd=e]2 [Bdf] | [^Fe^f]2 [Geg] [Aea]2 [=Ae=a] | ([cec']2 [Beb]) z2 z | %80
 [Bc]2 [Bc] [B_d]2 [Bd] | [B_d=e]2 [Bdf] [Bd^f]2 [Gcg] | [Gcg]2 [Aca] [Bfb]2 [=Bf=b] | %83
 (([=Ba=b]2 [cac'])) z2 z | [FG]2!<(! [FG] [^F_A]2 [FA]!<)! | [=FG]2 [FG]!>(! [^F=A]2 [EA]!>)! | %86
 !arpeggio![B,EB] z z z2 z | =A,3 _A,3 |!pp! (E3/2-E/8G/8B/8d/8.f) e>(d[Ec]) | %89
 B>(c[EA]) G>(B[DF]) | (E3/2-E/8G/8B/8d/8.f) e>(d[Ec]) | B>(c[EA]) G>(B[DF]) | D z z z2 z | z6 | %94
 z2!ppp! z !arpeggio![EGBe] z z | z2 z !arpeggio![egbe'] z z | !fermata!z6 |] %97
V:3
 !arpeggio![E,,B,,G,] z z [G,,G,] z z | [F,,F,] z z [B,,,B,,] z z | [C,,C,] z z F,, z z | %3
 [B,,,B,,] z z z2 z | !arpeggio![E,,B,,G,] z z [G,,G,] z z | [F,,F,] z z [=B,,,=B,,] z z | %6
 [C,,C,] z z F,, z z | [B,,,B,,] z z z2 z |[K:treble]"^ma sostenuto" [B,C]2 [B,C] [B,^C]2 [B,C] | %9
 [B,D]2 [B,E] [B,D=E]2 [B,DF] | [B,E]2 [B,E] [B,=F]2 [B,^F] | ([B,_A]2 [B,G]) z2 z | %12
 [B,C]2 [B,C] [B,_D]2 [B,D] | [B,_D=E]2 [B,DF] [B,D^F]2 [B,E] | [A,C=E]2 [A,CF] [G,_DF]2 [G,DF] | %15
 [F,=DF]2 [F,DF] z2 z |[K:bass] [=D,=B,]2 [D,B,] [E,C]2 [E,C] | [D,=B,]2 [D,B,] [E,C]2 [^F,C] | %18
 !arpeggio![B,,G,] z z z2 z | ([F,,E,]3 [B,,D,]3 | !arpeggio![E,,B,,G,]) z z [G,,G,] z z | %21
 [F,,F,] z z [B,,,C,] z z | [C,,C,] z z F,, z z | [B,,,B,,] z z z2 z | (F,,3 =A,,3 | =B,,3 C,3 | %26
 [_B,,G,]2) .[B,,=E,] [B,,F,]2 .[B,,A,] | z2 .[B,,F,] .[E,,B,,] z z | %28
[K:treble]"^in scherzando." [Gc]>([Ac-][Gc]) [^Fc][Gc][Bc]- | [Bc][=Ac][_Ac] [Gc]2 z | %30
 [Gc]>([Ac-][Gc]) [^Fc][Gc][Bc]- | [Bc][=Ac][_Ac] ([Ac]2 [Gc]) | G>(^F=F) EDC | E>D_D CB,A, | %34
[K:bass] C>=B,_B, A,G,F, | A,G,^F, G,D,G,, |[K:treble] [Gc]>([Ac-][Gc]) [^Fc][Gc][Bc]- | %37
 [Bc][=Ac][_Ac] [Gc]2 z | [Be]>([ce-][Be]) [=Ae][Be][_de]- | [_de][ce][_ce] [Be] z z | %40
[K:bass] [CE]2 [CE] [_C=D]2 [CD] | [B,_D]2 [B,D] [E,D]2 [E,D] | [CE]2 [CE] [_C=E]2 [CE] | %43
 [B,F]2 [B,F] [E,E]2 [E,_D] | [F,,F,]6 | [G,,C,]6 | (_D,3 =D,3 | [E,,E,]>)(F,G,) .A,.B,.C | E,6 | %49
 [A,,E,]2 [A,,E,] [A,,E,F,]2 [A,,E,F,] | [A,,^F,]2 [A,,F,] [A,,G,]2 [A,,G,] | %51
 [A,,A,]2 [A,,A,] [A,,G,]2 [A,,G,] | [A,,_G,]2 [A,,G,] [=A,,F,]2 [A,,F,] | %53
 [B,,F,]2 [B,,F,] [B,,G,]2 [B,,G,] | [B,,A,]2 [B,,A,] [B,,=A,]2 [B,,A,] | %55
 [B,,B,]2 [B,,B,] [B,,=A,]2 [B,,A,] | [B,,_A,]2 [B,,A,] [B,,G,]2 [B,,F,] |{/E,,} F,2 (F, E,2) (E, | %58
{/E,,} (F,3) E,3) |{/E,,} F,2 (F, E,2) E, |{/E,,} (F,3 E,3) |{/G,,} A,2 (A, G,2) (G, | %62
{/G,,} (A,3) G,3) |{/G,,} A,2 (A, G,2) (G, |"^Animez un peu."!<(! ([C,A,]3) G,3)!<)! | [F,,C,]6 | %66
"^Cèdez un peu." [B,,,B,,]6 | (([B,,A,]6 | %68
"^Un peu en dehors." !arpeggio![E,,B,,G,])) z z (G,,2 [G,B,]) | (F,,2 [F,C]) (B,,2 [A,B,]) | %70
 (C,2 [G,C]) (F,,2 F,) | (B,,2 B,)[K:treble] .B z z | %72
[K:bass] !arpeggio![E,,B,,G,] z z [G,,G,] z z | [F,,F,] z z [=B,,,=B,,] z z | [C,,C,] z z F,, z z | %75
 [B,,,B,,] z z z2 z |[K:treble] [B,C]2 [B,C] [B,^C]2 [B,C] | [B,D]2 [B,E] [B,D=E]2 [B,DF] | %78
 [B,E]2 [B,E] [B,=F]2 [B,^F] | ([B,_A]2 [B,G]) z2 z | [B,C]2 [B,C] [B,_D]2 [B,D] | %81
 [B,_D=E]2 [B,DF] [B,D^F]2 [B,E] | [A,C=E]2 [A,CF] [G,_DF]2 [G,DF] | [F,_DF]2 [F,CF] z2 z | %84
[K:bass] [=D,=B,]2 [D,B,] [E,C]2 [E,C] | [D,=B,]2 [D,B,] [E,C]2 [^F,C] | %86
 !arpeggio![B,,G,] z z z2 z | ([F,,E,]3 [B,,D,]3 | !arpeggio![E,,B,,G,]) z z (G,,2 [G,B,]) | %89
 (F,,2 [F,C]) (B,,2 [A,B,]) | !arpeggio![E,,B,,G,] z z (G,,2 [G,B,]) | (F,,2 [F,C]) (B,,2 [A,B,]) | %92
 !arpeggio![E,,B,,G,] z z z2 z | z6 | z2 z!ped! !arpeggio![E,,B,,G,] z z!ped-up! | %95
 z2 z !arpeggio![E,B,G] z z | !fermata!z6 |] %97
V:4
 x6 | x6 | x6 | x6 | x6 | x6 | x6 | x6 | x6 | x6 | x6 | x6 | x6 | x6 | x6 | x6 | x6 | x6 | x6 | %19
 x6 | x6 | x6 | x6 | x6 | x6 | x6 | x6 | x6 | x6 | x6 | x6 | x6 | x6 | x6 | x6 | x6 | x6 | x6 | %38
 x6 | x6 | x6 | x6 | A2 A A2 A | A2 A G2 G | x6 | x6 | x6 | x6 | %48
[I:staff +1] _D>[I:staff -1](E=E) x x2 | x6 | x6 | x6 | x6 | x6 | x6 | x6 | x6 | [G,_D]6 | [A,C]6 | %59
 [G,_D]6 | [A,C]6 | [=B,F]6 | [CE]6 | [=B,F]6 | [CE]6 | x6 | x6 | C3 D3 | x6 | x6 | x6 | x6 | x6 | %73
 x6 | x6 | x6 | x6 | x6 | x6 | x6 | x6 | x6 | x6 | x6 | x6 | x6 | x6 | x6 | x6 | x6 | x6 | x6 | %92
 x6 | x6 | x6 | x6 | x6 |] %97
V:5
 x6 | x6 | x6 | x6 | x6 | x6 | x6 | x6 |[K:treble] x6 | x6 | x6 | x6 | x6 | x6 | x6 | x6 | %16
[K:bass] x6 | x6 | x6 | x6 | x6 | x6 | x6 | x6 | x6 | x6 | x6 | x6 |[K:treble] x6 | x6 | x6 | x6 | %32
 x6 | x6 |[K:bass] x6 | x6 |[K:treble] x6 | x6 | x6 | x6 |[K:bass] x6 | x6 | x6 | x6 | x6 | x6 | %46
 A,,6 | x6 | x6 | x6 | x6 | x6 | x6 | x6 | x6 | x6 | x6 | x6 | x6 | x6 | x6 | x6 | x6 | x6 | x6 | %65
 x6 | x6 | x6 | x6 | x6 | x6 | x3[K:treble] x3 |[K:bass] x6 | x6 | x6 | x6 |[K:treble] x6 | x6 | %78
 x6 | x6 | x6 | x6 | x6 | x6 |[K:bass] x6 | x6 | x6 | x6 | x6 | x6 | x6 | x6 | x6 | x6 | x6 | x6 | %96
 x6 |] %97

